X:3
T:Chromatic Descending Bass
M:4/4
L:1/4
K:C
V:1
"Am"E2 A2 | "Am(maj7)/G#"^D2 A2 | "Am7/G"=D2 G2 | "D/F#"^F2 A2 | "F"A2 c2 | "E7"B,2 ^G2 | "Am"A,4 |]
V:2 [K:C bass]
A,,2 A,,2 | ^G,,2 G,,2 | =G,,2 G,,2 | ^F,,2 F,,2 | F,,2 F,,2 | E,,2 E,,2 | A,,4 |]